svgs/sharp-light/head-side-goggles.svg

<svg xmlns="http://www.w3.org/2000/svg" viewBox="0 0 512 512"><!--! Font Awesome Pro 6.6.0 by @fontawesome - https://fontawesome.com License - https://fontawesome.com/license (Commercial License) Copyright 2024 Fonticons, Inc. --><path d="M2.3 256C9.2 304.3 31.5 347.6 64 380.8L64 496l0 16 32 0 0-16 0-121.9 0-6.8-4.9-4.7c-29.1-28-49.5-65-56.4-106.5L2.3 256zM80.9 96C116 56.7 167.1 32 224 32l24 0c36 0 69.3 11.9 96 32l-56 0c-28.4 0-54 12.4-71.6 32L80.9 96zM40.1 96L16 96 0 96l0 16 0 96 0 16 16 0 200.4 0c17.6 19.6 43.1 32 71.6 32l112 0 96 0 16 0 0-16 0-160 0-16-16 0-96 0-8.9 0C356 24.7 304.9 0 248 0L224 0C147.9 0 80.6 38 40.1 96zm157.3 96L32 192l0-64 165.5 0c-3.5 10-5.5 20.8-5.5 32s1.9 22 5.5 32zM512 288l-32 0 0 16-48 0-16 0 0 16 0 96-112 0-16 0 0 16 0 64 0 16 32 0 0-16 0-48 112 0 16 0 0-16 0-96 48 0 16 0 0-16 0-32zM288 96l96 0 0 128-96 0c-35.3 0-64-28.7-64-64s28.7-64 64-64zM416 224l0-128 64 0 0 128-64 0z"/></svg>

<svg xmlns="http://www.w3.org/2000/svg" viewBox="0 0 512 512"><!--! Font Awesome Pro 6.4.0 by @fontawesome - https://fontawesome.com License - https://fontawesome.com/license (Commercial License) Copyright 2023 Fonticons, Inc. --><path d="M2.3 256C9.2 304.3 31.5 347.6 64 380.8V496v16H96V496 374.1v-6.8l-4.9-4.7c-29.1-28-49.5-65-56.4-106.5H2.3zM80.9 96C116 56.7 167.1 32 224 32h24c36 0 69.3 11.9 96 32H288c-28.4 0-54 12.4-71.6 32H80.9zM40.1 96H16 0v16 96 16H16 216.4c17.6 19.6 43.1 32 71.6 32H400h96 16V240 80 64H496 400h-8.9C356 24.7 304.9 0 248 0H224C147.9 0 80.6 38 40.1 96zm157.3 96H32V128H197.5c-3.5 10-5.5 20.8-5.5 32s1.9 22 5.5 32zM512 288H480v16H432 416v16 96H304 288v16 64 16h32V496 448H432h16V432 336h48 16V320 288zM288 96h96V224H288c-35.3 0-64-28.7-64-64s28.7-64 64-64zM416 224V96h64V224H416z"/></svg>
